cached_logos/st-microelectronics-international-n-v.svg

<svg xmlns="http://www.w3.org/2000/svg" role="img" viewBox="-8.95 -8.95 465.40 132.40"><title>STMicroelectronics International N.V. logo</title><defs><style>.cls-1{fill:#03234b}</style></defs><g id="Layer_2" data-name="Layer 2"><g id="Logo"><path d="M214.35 0H57.62a29 29 0 0 0-26.55 17.27L.13 91.8a1.62 1.62 0 0 0 1.51 2.25h70.77c5 0 7.22-4.84 3.3-8.71L49.72 61c-13.66-13.39-7.8-44.44 20.57-44.44h138.55a1.64 1.64 0 0 0 1.55-1.09l5.48-13.25a1.59 1.59 0 0 0 .12-.62 1.64 1.64 0 0 0-1.64-1.6z" class="cls-1"/><path d="M198.73 37.94h-26.61a4.3 4.3 0 0 0-4 2.63l-29.81 72a1.58 1.58 0 0 0-.19.75 1.62 1.62 0 0 0 1.63 1.61h9.93a29 29 0 0 0 26.81-17.67l23.69-57.19a1.73 1.73 0 0 0 .12-.6 1.6 1.6 0 0 0-1.57-1.53zm-52.3 1.61a1.63 1.63 0 0 0-1.64-1.62H69.35c-4.09 0-7.67 5-3.34 9l24.92 23.21s10.09 9.3 7.93 22.61C97 104.47 89 111.64 83.17 114.22a.4.4 0 0 0 .18.77h29.05a4.29 4.29 0 0 0 4-2.63l29.9-72.24a1.25 1.25 0 0 0 .13-.57zM286.7 91.54a6.45 6.45 0 1 1 0-12.9 6.4 6.4 0 0 1 6.3 6.48 6.29 6.29 0 0 1-6.3 6.42m6.18-11.94a7.46 7.46 0 0 0-6.19-3 8.53 8.53 0 1 0 0 17.06 7.54 7.54 0 0 0 6.19-3v2.66h2.29V77h-2.29zm18.74 5.99c0 2.85-.77 3.86-1.64 4.72a4.46 4.46 0 0 1-3.32 1.26 4.62 4.62 0 0 1-3.66-1.48 6.5 6.5 0 0 1-1.12-4.15V77h-2.29v9a8.19 8.19 0 0 0 1.43 5.23 6.9 6.9 0 0 0 5.61 2.45 5.52 5.52 0 0 0 5.1-2.68v2.25h2.17V77h-2.29v8.6zM325 91.54a6.45 6.45 0 1 1 6.24-6.42c0 2.59-2 6.42-6.24 6.42m6.12-11.88a7.43 7.43 0 0 0-6.13-3.1 8.54 8.54 0 0 0 0 17.07c2 0 4.8-.83 6.13-3.1v1.07c0 4.33-3.06 5.86-5.69 5.86a6.12 6.12 0 0 1-5.9-4v-.08h-2.4v.15c1.62 5.55 6.78 6 8.32 6 .44 0 4.35-.08 6.46-3a9.22 9.22 0 0 0 1.49-5.93V77h-2.3zm23.06-3.08a6.28 6.28 0 0 0-5.39 2.94 6.29 6.29 0 0 0-5.4-2.94 5.36 5.36 0 0 0-4.25 2V77h-2.29v16.27h2.29v-9.41a6.07 6.07 0 0 1 .72-3.28 4.22 4.22 0 0 1 7.06 0 6.11 6.11 0 0 1 .72 3.29v9.41h2.29v-9.42a6.07 6.07 0 0 1 .72-3.28 4.22 4.22 0 0 1 7.06 0 6.11 6.11 0 0 1 .72 3.29v9.41h2.29v-9.66c0-5.56-4.11-7-6.54-7m11.6 7.28a6.19 6.19 0 0 1 12.23 0zm6.07-7.33a8.62 8.62 0 0 0-8.44 8.56 8.47 8.47 0 0 0 16.47 2.79l.06-.16h-2.42v.08a5.93 5.93 0 0 1-5.64 3.7 6.27 6.27 0 0 1-6.12-5.54h14.59v-.11a8.67 8.67 0 0 0-8.51-9.29m18.75-.02a5.91 5.91 0 0 0-4.87 2.29V77h-2.29v16.27h2.29v-9a5.75 5.75 0 0 1 1.46-4.27 5 5 0 0 1 3.41-1.34A5.06 5.06 0 0 1 394 80a5.92 5.92 0 0 1 1.49 4.31v8.94h2.29v-8.93a7.78 7.78 0 0 0-2-5.74 6.77 6.77 0 0 0-5.16-2m15.34-5.26h-2.29v5.67h-3.37v2.09h3.37v14.19h2.29V79.08h3.84v-2.09h-3.84v-5.67zm7.52 12.57a6.19 6.19 0 0 1 12.23 0zm6.08-7.33a8.62 8.62 0 0 0-8.44 8.56 8.47 8.47 0 0 0 16.47 2.79l.06-.16h-2.42v.08a5.93 5.93 0 0 1-5.63 3.7 6.27 6.27 0 0 1-6.12-5.53h14.59v-.11a8.67 8.67 0 0 0-8.52-9.29m19.52 14.95a6.45 6.45 0 1 1 0-12.9 6.4 6.4 0 0 1 6.3 6.48 6.28 6.28 0 0 1-6.3 6.42m6.18-20.22v8.24a7.79 7.79 0 0 0-6.19-3 8.53 8.53 0 1 0 0 17.06 7.7 7.7 0 0 0 6.19-3v2.64h2.29V71.32h-2.29zm-216.89-.57h2.18v3.27h-2.18zm-7.42.57h-4.75v2.05h2.58v17.83h-2.76v2.05h7.48v-2.05h-2.55V71.33zm10.13 5.66h-4.76v2.06h2.58v12.16h-2.64v2.05h7.4v-2.05h-2.58V76.99zm8.93-4.62c-1.42 1.27-1.48 2.74-1.54 4.52V77h-2.58v2.11h2.61v12.1h-2.61v2.06h7.42v-2.06h-2.64V79.12h2.64V77h-2.64v-.35c0-1.17.05-2.19 1-2.93a3.65 3.65 0 0 1 2.14-.72h.11v-2h-.13a5.79 5.79 0 0 0-3.78 1.37m8.58 11.85a6.18 6.18 0 0 1 5.93-5.2 6.25 6.25 0 0 1 6.28 5.2zm6-7.23a8.31 8.31 0 1 0 7.7 11.74l.08-.17H260v.06a6.13 6.13 0 0 1-11.36-2.54h14.34v-.72a8.29 8.29 0 0 0-8.44-8.36m15.8 16.69a2.82 2.82 0 1 0-2.82-2.82 2.82 2.82 0 0 0 2.82 2.82" class="cls-1"/></g></g></svg>

<svg xmlns="http://www.w3.org/2000/svg" role="img" viewBox="-8.95 -8.95 465.40 132.40"><title>STMicroelectronics International N.V. logo</title><defs><style>.cls-1{fill:#03234b}</style></defs><g id="Layer_2" data-name="Layer 2"><g id="Logo"><path d="M214.35,0H57.62A29,29,0,0,0,31.07,17.27L.13,91.8a1.62,1.62,0,0,0,1.51,2.25H72.41c5,0,7.22-4.84,3.3-8.71L49.72,61c-13.66-13.39-7.8-44.44,20.57-44.44H208.84a1.64,1.64,0,0,0,1.55-1.09l5.48-13.25a1.59,1.59,0,0,0,.12-.62A1.64,1.64,0,0,0,214.35,0Z" class="cls-1"/><path d="M198.73 37.94l-26.61 0a4.3 4.3 0 0 0-4 2.63l-29.81 72a1.58 1.58 0 0 0-.19.75 1.62 1.62 0 0 0 1.63 1.61h9.93a29 29 0 0 0 26.81-17.67l0 0 23.69-57.19a1.73 1.73 0 0 0 .12-.6A1.6 1.6 0 0 0 198.73 37.94zM146.43 39.55a1.63 1.63 0 0 0-1.64-1.62H69.35c-4.09 0-7.67 5-3.34 9L90.93 70.14s10.09 9.3 7.93 22.61C97 104.47 89 111.64 83.17 114.22h0a.4.4 0 0 0 .18.77H112.4a4.29 4.29 0 0 0 4-2.63L146.3 40.12A1.25 1.25 0 0 0 146.43 39.55zM286.7 91.54a6.45 6.45 0 1 1 0-12.9 6.4 6.4 0 0 1 6.3 6.48 6.29 6.29 0 0 1-6.3 6.42m6.18-11.94a7.46 7.46 0 0 0-6.19-3 8.53 8.53 0 1 0 0 17.06 7.54 7.54 0 0 0 6.19-3v2.66h2.29V77h-2.29zM311.62 85.59c0 2.85-.77 3.86-1.64 4.72a4.46 4.46 0 0 1-3.32 1.26A4.62 4.62 0 0 1 303 90.09a6.5 6.5 0 0 1-1.12-4.15V77h-2.29v9a8.19 8.19 0 0 0 1.43 5.23 6.9 6.9 0 0 0 5.61 2.45A5.52 5.52 0 0 0 311.73 91v2.25h2.17V77h-2.29v8.6zM325 91.54a6.45 6.45 0 1 1 6.24-6.42c0 2.59-2 6.42-6.24 6.42m6.12-11.88a7.43 7.43 0 0 0-6.13-3.1 8.54 8.54 0 0 0 0 17.07c2 0 4.8-.83 6.13-3.1V91.6c0 4.33-3.06 5.86-5.69 5.86a6.12 6.12 0 0 1-5.9-4l0-.08h-2.4l0 .15c1.62 5.55 6.78 6 8.32 6 .44 0 4.35-.08 6.46-3a9.22 9.22 0 0 0 1.49-5.93V77H331.1zM354.18 76.58a6.28 6.28 0 0 0-5.39 2.94 6.29 6.29 0 0 0-5.4-2.94 5.36 5.36 0 0 0-4.25 2V77h-2.29V93.27h2.29V83.86a6.07 6.07 0 0 1 .72-3.28 4.22 4.22 0 0 1 7.06 0 6.11 6.11 0 0 1 .72 3.29v9.41h2.29V83.86a6.07 6.07 0 0 1 .72-3.28 4.22 4.22 0 0 1 7.06 0 6.11 6.11 0 0 1 .72 3.29v9.41h2.29V83.62c0-5.56-4.11-7-6.54-7M365.78 83.9a6.19 6.19 0 0 1 12.23 0zm6.07-7.33a8.62 8.62 0 0 0-8.44 8.56 8.47 8.47 0 0 0 16.47 2.79l.06-.16h-2.42l0 .08a5.93 5.93 0 0 1-5.64 3.7A6.27 6.27 0 0 1 365.76 86h14.59v-.11a8.67 8.67 0 0 0-8.51-9.29M390.59 76.58a5.91 5.91 0 0 0-4.87 2.29V77h-2.29V93.27h2.29v-9A5.75 5.75 0 0 1 387.18 80a5 5 0 0 1 3.41-1.34A5.06 5.06 0 0 1 394 80a5.92 5.92 0 0 1 1.49 4.31v8.94h2.29V84.32a7.78 7.78 0 0 0-2-5.74 6.77 6.77 0 0 0-5.16-2M405.96 71.32L403.67 71.32 403.67 76.99 400.3 76.99 400.3 79.08 403.67 79.08 403.67 93.27 405.96 93.27 405.96 79.08 409.8 79.08 409.8 76.99 405.96 76.99 405.96 71.32zM413.48 83.89a6.19 6.19 0 0 1 12.23 0zm6.08-7.33a8.62 8.62 0 0 0-8.44 8.56 8.47 8.47 0 0 0 16.47 2.79l.06-.16h-2.42l0 .08a5.93 5.93 0 0 1-5.63 3.7A6.27 6.27 0 0 1 413.48 86h14.59v-.11a8.67 8.67 0 0 0-8.52-9.29M439.07 91.55a6.45 6.45 0 1 1 0-12.9 6.4 6.4 0 0 1 6.3 6.48 6.28 6.28 0 0 1-6.3 6.42m6.18-20.22v8.24a7.79 7.79 0 0 0-6.19-3 8.53 8.53 0 1 0 0 17.06 7.7 7.7 0 0 0 6.19-3v2.64h2.29V71.32h-2.29zM228.36 70.76H230.54000000000002V74.03H228.36zM220.94 71.33L216.19 71.33 216.19 73.38 218.77 73.38 218.77 91.21 216.01 91.21 216.01 93.26 223.49 93.26 223.49 91.21 220.94 91.21 220.94 71.33zM231.07 76.99L226.31 76.99 226.31 79.05 228.89 79.05 228.89 91.21 226.25 91.21 226.25 93.26 233.65 93.26 233.65 91.21 231.07 91.21 231.07 76.99zM240 72.37c-1.42 1.27-1.48 2.74-1.54 4.52V77h-2.58v2.11h2.61V91.21h-2.61v2.06h7.42V91.21h-2.64V79.12h2.64V77h-2.64v-.35c0-1.17.05-2.19 1-2.93A3.65 3.65 0 0 1 243.8 73h.11V71h-.13A5.79 5.79 0 0 0 240 72.37M248.58 84.22a6.18 6.18 0 0 1 5.93-5.2 6.25 6.25 0 0 1 6.28 5.2zm6-7.23a8.31 8.31 0 1 0 7.7 11.74l.08-.17H260l0 .06a6.13 6.13 0 0 1-11.36-2.54h14.34v-.72A8.29 8.29 0 0 0 254.54 77M270.34 93.69a2.82 2.82 0 1 0-2.82-2.82 2.82 2.82 0 0 0 2.82 2.82" class="cls-1"/></g></g></svg>
